icon/ir/expand.svg

<svg width="24" height="24" stroke-width="1.5" fill="none" xmlns="http://www.w3.org/2000/svg"><path d="M9 9 4 4m0 0v4m0-4h4M15 9l5-5m0 0v4m0-4h-4M9 15l-5 5m0 0v-4m0 4h4M15 15l5 5m0 0v-4m0 4h-4" stroke="currentColor" stroke-linecap="round" stroke-linejoin="round"/></svg>

<svg stroke-width="1.5" viewBox="0 0 24 24" fill="none" xmlns="http://www.w3.org/2000/svg" height="1em" width="1em">
  <path d="M9 9L4 4M4 4V8M4 4H8" stroke="currentColor" stroke-linecap="round" stroke-linejoin="round"/>
  <path d="M15 9L20 4M20 4V8M20 4H16" stroke="currentColor" stroke-linecap="round" stroke-linejoin="round"/>
  <path d="M9 15L4 20M4 20V16M4 20H8" stroke="currentColor" stroke-linecap="round" stroke-linejoin="round"/>
  <path d="M15 15L20 20M20 20V16M20 20H16" stroke="currentColor" stroke-linecap="round" stroke-linejoin="round"/>
</svg>
